svgs/themed_icon_calendar_2.svg

<svg height="192" width="192" xmlns="http://www.w3.org/2000/svg"><path d="M146 30H46c-8.837 0-16 7.163-16 16v100c0 8.837 7.163 16 16 16h75.373a16 16 0 0 0 11.313-4.686l24.628-24.628A16 16 0 0 0 162 121.373V46c0-8.837-7.163-16-16-16Z" stroke="#000" stroke-width="12" fill="none"/><path d="M84.35 120c-1.824 0-3.144-.408-3.96-1.224-.816-.864-1.224-2.112-1.224-3.744 0-1.056.264-2.04.792-2.952.528-.912 1.248-1.848 2.16-2.808l13.536-14.256c2.016-2.16 3.456-4.08 4.32-5.76.912-1.68 1.368-3.36 1.368-5.04 0-4.32-2.664-6.48-7.992-6.48-1.392 0-2.832.192-4.32.576-1.44.384-2.952 1.056-4.536 2.016-1.296.768-2.496.936-3.6.504-1.056-.432-1.848-1.176-2.376-2.232a5.23 5.23 0 0 1-.36-3.312c.288-1.2 1.08-2.184 2.376-2.952a24.478 24.478 0 0 1 6.912-2.88c2.496-.672 4.968-1.008 7.416-1.008 5.664 0 9.984 1.272 12.96 3.816 3.024 2.496 4.536 6.072 4.536 10.728 0 3.072-.72 6.024-2.16 8.856-1.392 2.784-3.696 5.808-6.912 9.072l-9.792 9.936h16.704c3.12 0 4.68 1.512 4.68 4.536 0 3.072-1.56 4.608-4.68 4.608H84.35Z"/></svg>

<?xml version="1.0" encoding="UTF-8" standalone="no"?><svg xmlns:android="http://schemas.android.com/apk/res/android" height="192" width="192" xmlns="http://www.w3.org/2000/svg">
  <path d="M146,30H46C37.163,30 30,37.163 30,46V146C30,154.837 37.163,162 46,162H121.373C125.616,162 129.686,160.314 132.686,157.314L157.314,132.686C160.314,129.686 162,125.616 162,121.373V46C162,37.163 154.837,30 146,30Z" fill="#000000" fill-opacity="0.0" stroke="#000000" stroke-width="12"/>
  <path d="M84.35,120C82.526,120 81.206,119.592 80.39,118.776C79.574,117.912 79.166,116.664 79.166,115.032C79.166,113.976 79.43,112.992 79.958,112.08C80.486,111.168 81.206,110.232 82.118,109.272L95.654,95.016C97.67,92.856 99.11,90.936 99.974,89.256C100.886,87.576 101.342,85.896 101.342,84.216C101.342,79.896 98.678,77.736 93.35,77.736C91.958,77.736 90.518,77.928 89.03,78.312C87.59,78.696 86.078,79.368 84.494,80.328C83.198,81.096 81.998,81.264 80.894,80.832C79.838,80.4 79.046,79.656 78.518,78.6C78.038,77.544 77.918,76.44 78.158,75.288C78.446,74.088 79.238,73.104 80.534,72.336C82.646,71.04 84.95,70.08 87.446,69.456C89.942,68.784 92.414,68.448 94.862,68.448C100.526,68.448 104.846,69.72 107.822,72.264C110.846,74.76 112.358,78.336 112.358,82.992C112.358,86.064 111.638,89.016 110.198,91.848C108.806,94.632 106.502,97.656 103.286,100.92L93.494,110.856H110.198C113.318,110.856 114.878,112.368 114.878,115.392C114.878,118.464 113.318,120 110.198,120H84.35Z" fill="#000000"/>
</svg>
